X: 194
T: Linzhong laile bai qunzi
%%abc-version 2.0
%%abcx-abcm2ps-target-version 5.9.1 (29 Sep 2008)
%%abc-creator hum2abc beta
%%abcx-conversion-date 2013/10/02 07:44:28
%%abc-edited-by Helmut Schaffrath
%%humdrum-veritas 1437077419
%%humdrum-veritas-data 3613432849
%%continueall 1
%%barnumbers 0
L: 1/4
M: 5/4
K: C
A/ c/cee/z3/ [I:setbarnb 1]| 
cee3 | 
eecc/Ac/ | 
ed/ec/A2 | 
cA>zce | 
d/ e/cd/ e/ez | 
ed/ e/cc/AE/ | 
ed/ e/cA2 |]  



